public/images/icons/coins/polygon-zkevm.svg

<?xml version="1.0" encoding="UTF-8" standalone="no"?>
<svg
   width="60"
   height="60.000004"
   viewBox="0 0 60 60.000004"
   fill="none"
   version="1.1"
   id="svg13"
   sodipodi:docname="polygon-zkevm.svg"
   inkscape:version="1.1.2 (0a00cf5339, 2022-02-04)"
   xmlns:inkscape="http://www.inkscape.org/namespaces/inkscape"
   xmlns:sodipodi="http://sodipodi.sourceforge.net/DTD/sodipodi-0.dtd"
   xmlns="http://www.w3.org/2000/svg"
   xmlns:svg="http://www.w3.org/2000/svg">
  <sodipodi:namedview
     id="namedview15"
     pagecolor="#ffffff"
     bordercolor="#000000"
     borderopacity="0.25"
     inkscape:pageshadow="2"
     inkscape:pageopacity="0.0"
     inkscape:pagecheckerboard="0"
     showgrid="false"
     fit-margin-top="0"
     fit-margin-left="0"
     fit-margin-right="0"
     fit-margin-bottom="0"
     inkscape:showpageshadow="false"
     showborder="false"
     inkscape:zoom="14.38"
     inkscape:cx="24.826147"
     inkscape:cy="25"
     inkscape:window-width="1920"
     inkscape:window-height="1066"
     inkscape:window-x="0"
     inkscape:window-y="0"
     inkscape:window-maximized="1"
     inkscape:current-layer="svg13" />
  <g
     id="g834"
     inkscape:label="pol"
     transform="matrix(1.2,0,0,1.2000048,-0.81792068,0)">
    <ellipse
       cx="25.681601"
       cy="24.999901"
       rx="25"
       ry="24.999901"
       fill="url(#paint0_linear_62_123)"
       id="ellipse2"
       style="fill:url(#paint0_linear_62_123)" />
    <path
       d="m 26.6828,35.5456 c 0.6156,-0.3636 1.0133,-1.0614 1.0607,-1.8606 l -0.0512,-5.8185 0.0719,-3.8859 -0.0953,-5.7409 c 0.0031,-0.7218 0.4009,-1.4195 1.0607,-1.8607 l 3.8906,-2.1698 c 0.6156,-0.3636 1.449,-0.3932 2.1379,0.0096 l 3.8274,2.238 c 0.6124,0.3581 1.0481,1.0262 1.0772,1.8702 l 0.0133,4.4526 c -0.0031,0.7217 -0.4009,1.4195 -1.0606,1.8606 l -3.8907,2.1699 c -0.6156,0.3636 -1.449,0.3932 -2.1379,-0.0097 l -2.5261,-1.477 0.0046,3.9307 2.6027,1.5218 c 0.6124,0.358 1.4016,0.406 2.1379,0.0096 l 7.1334,-4.0983 C 42.5549,26.3235 42.9526,25.6258 43,24.8266 L 42.9497,16.321 c 0.0474,-0.7992 -0.3883,-1.4674 -1.0006,-1.8255 L 34.7535,10.2882 C 34.1411,9.93009 33.3519,9.88211 32.6156,10.2785 l -7.1776,4.1759 c -0.6156,0.3636 -1.0134,1.0614 -1.0607,1.8606 l 0.0188,5.6962 0.0046,3.9307 0.0188,5.6962 c -0.0031,0.7217 -0.4009,1.4194 -1.0607,1.8606 l -3.8141,2.2146 c -0.6156,0.3636 -1.4489,0.3932 -2.1379,-0.0097 l -3.8274,-2.2379 c -0.6124,-0.3581 -1.048,-1.0263 -1.0772,-1.8703 l -0.0575,-4.375 c 0.0032,-0.7217 0.4009,-1.4195 1.0607,-1.8606 l 3.8141,-2.2146 c 0.6156,-0.3637 1.449,-0.3932 2.1379,0.0096 l 2.4496,1.4323 -0.0047,-3.9307 -2.5261,-1.477 c -0.6124,-0.3581 -1.4016,-0.4061 -2.1379,-0.0097 l -7.1776,4.1759 C 9.44513,23.7092 9.04737,24.407 9,25.2062 l 0.01796,8.3833 c -0.00317,0.7217 0.38824,1.4674 1.07714,1.8702 l 7.2722,4.2521 c 0.6124,0.3581 1.4015,0.4061 2.1379,0.0097 z"
       fill="#ffffff"
       id="path4" />
  </g>
  <defs
     id="defs11">
    <linearGradient
       id="paint0_linear_62_123"
       x1="6.7361302"
       y1="12.9393"
       x2="46.6422"
       y2="33.068501"
       gradientUnits="userSpaceOnUse">
      <stop
         stop-color="#A128C5"
         id="stop6" />
      <stop
         offset="1"
         stop-color="#7C3FE3"
         id="stop8" />
    </linearGradient>
  </defs>
</svg>

<svg width="51" height="50" viewBox="0 0 51 50" fill="none" xmlns="http://www.w3.org/2000/svg">
<ellipse cx="25.6816" cy="24.9999" rx="25" ry="24.9999" fill="url(#paint0_linear_62_123)"/>
<path d="M26.6828 35.5456C27.2984 35.182 27.6961 34.4842 27.7435 33.685L27.6923 27.8665L27.7642 23.9806L27.6689 18.2397C27.672 17.5179 28.0698 16.8202 28.7296 16.379L32.6202 14.2092C33.2358 13.8456 34.0692 13.816 34.7581 14.2188L38.5855 16.4568C39.1979 16.8149 39.6336 17.483 39.6627 18.327L39.676 22.7796C39.6729 23.5013 39.2751 24.1991 38.6154 24.6402L34.7247 26.8101C34.1091 27.1737 33.2757 27.2033 32.5868 26.8004L30.0607 25.3234L30.0653 29.2541L32.668 30.7759C33.2804 31.1339 34.0696 31.1819 34.8059 30.7855L41.9393 26.6872C42.5549 26.3235 42.9526 25.6258 43 24.8266L42.9497 16.321C42.9971 15.5218 42.5614 14.8536 41.9491 14.4955L34.7535 10.2882C34.1411 9.93009 33.3519 9.88211 32.6156 10.2785L25.438 14.4544C24.8224 14.818 24.4246 15.5158 24.3773 16.315L24.3961 22.0112L24.4007 25.9419L24.4195 31.6381C24.4164 32.3598 24.0186 33.0575 23.3588 33.4987L19.5447 35.7133C18.9291 36.0769 18.0958 36.1065 17.4068 35.7036L13.5794 33.4657C12.967 33.1076 12.5314 32.4394 12.5022 31.5954L12.4447 27.2204C12.4479 26.4987 12.8456 25.8009 13.5054 25.3598L17.3195 23.1452C17.9351 22.7815 18.7685 22.752 19.4574 23.1548L21.907 24.5871L21.9023 20.6564L19.3762 19.1794C18.7638 18.8213 17.9746 18.7733 17.2383 19.1697L10.0607 23.3456C9.44513 23.7092 9.04737 24.407 9 25.2062L9.01796 33.5895C9.01479 34.3112 9.4062 35.0569 10.0951 35.4597L17.3673 39.7118C17.9797 40.0699 18.7688 40.1179 19.5052 39.7215L26.6828 35.5456Z" fill="white"/>
<defs>
<linearGradient id="paint0_linear_62_123" x1="6.73613" y1="12.9393" x2="46.6422" y2="33.0685" gradientUnits="userSpaceOnUse">
<stop stop-color="#A128C5"/>
<stop offset="1" stop-color="#7C3FE3"/>
</linearGradient>
</defs>
</svg>
